X: 13029
T: Finbarr Dwyer's
R: slide
M: 12/8
K: Emajor
K: ALydian
|:cBA|E2 c- cBA c2 e- e2 e|f2 e A2 c B2 B cBA|
E2 c cBA c2 e- ede|f2 e c2 B A2 A:|
|:cBA|a2 a g2 f e2 e- ece|f2 e c2 A B>ce cBA|
a2 a g2 f e2 e- ece|f2 e c2 B A2 A:|

